vendor/shopware/storefront/Resources/app/storefront/dist/assets/icon/default/marker.svg

<svg xmlns="http://www.w3.org/2000/svg" width="24" height="24" viewBox="0 0 24 24">
  <path fill="#758CA3" fill-rule="evenodd" d="M12.7684823,23.0865622 C12.729608,23.13325 12.68656,23.176298 12.6398722,23.2151723 C12.2154477,23.5685675 11.5849002,23.5109868 11.231505,23.0865622 C5.74383748,16.4959053 3,11.6797559 3,8.63810779 C3,3.86741259 7.2293048,0 12,0 C16.7706952,0 21,3.86741259 21,8.63810779 C21,11.6797569 18.2561608,16.4959084 12.7684823,23.0865622 Z M19,8.63810779 C19,5.06317934 15.7595324,2 12,2 C8.24046757,2 5,5.06317934 5,8.63810779 C5,10.9291798 7.31851165,15.1146759 12.0000002,20.8729903 C16.6814821,15.1146871 19,10.9291829 19,8.63810779 Z M12,11 C10.8954305,11 10,10.1045695 10,9 C10,7.8954305 10.8954305,7 12,7 C13.1045695,7 14,7.8954305 14,9 C14,10.1045695 13.1045695,11 12,11 Z"/>
</svg>

<svg xmlns="http://www.w3.org/2000/svg" width="24" height="24" viewBox="0 0 24 24"><path fill="#758CA3" fill-rule="evenodd" d="M12.7685 23.0866a1 1 0 0 1-.1286.1286c-.4245.3534-1.055.2958-1.4084-.1286C5.7438 16.4959 3 11.6798 3 8.638 3 3.8674 7.2293 0 12 0s9 3.8674 9 8.6381c0 3.0417-2.7438 7.8578-8.2315 14.4485zM19 8.638C19 5.0631 15.7595 2 12 2S5 5.0632 5 8.6381c0 2.291 2.3185 6.4766 7 12.2349 4.6815-5.7583 7-9.9438 7-12.2349zM12 11c-1.1046 0-2-.8954-2-2s.8954-2 2-2 2 .8954 2 2-.8954 2-2 2z"/></svg>
